dist/svg/u1F6D1.svg

<?xml version="1.0" encoding="UTF-8"?><svg id="a" xmlns="http://www.w3.org/2000/svg" viewBox="0 0 40 40"><path d="M25.226,3.5H14.774c-1.03,0-2.017,.409-2.745,1.137l-7.391,7.391c-.728,.728-1.137,1.716-1.137,2.745v10.453c0,1.03,.409,2.017,1.137,2.745l7.391,7.391c.728,.728,1.716,1.137,2.745,1.137h10.453c1.03,0,2.017-.409,2.745-1.137l7.391-7.391c.728-.728,1.137-1.716,1.137-2.745V14.774c0-1.03-.409-2.017-1.137-2.745l-7.391-7.391c-.728-.728-1.716-1.137-2.745-1.137Z" fill="#ef4452"/><rect width="40" height="40" fill="none"/></svg>

<svg id="Layer_1" data-name="Layer 1" xmlns="http://www.w3.org/2000/svg" viewBox="0 0 40 40"><defs><style>.cls-1{fill:#ef4452;}.cls-2{fill:none;}</style></defs><path class="cls-1" d="M25.226,3.5H14.774a3.884,3.884,0,0,0-2.746,1.137L4.637,12.028A3.884,3.884,0,0,0,3.5,14.774V25.226a3.884,3.884,0,0,0,1.137,2.746l7.391,7.391A3.884,3.884,0,0,0,14.774,36.5H25.226a3.884,3.884,0,0,0,2.746-1.137l7.391-7.391A3.884,3.884,0,0,0,36.5,25.226V14.774a3.884,3.884,0,0,0-1.137-2.746L27.972,4.637A3.884,3.884,0,0,0,25.226,3.5Z"/><rect class="cls-2" width="40" height="40"/></svg>
